assets/images/svgs/twitter.svg

<svg width="24" height="24" viewBox="0 0 24 24" fill="none" xmlns="http://www.w3.org/2000/svg">
<path d="M20.9727 6.7174C20.5083 7.33692 19.9469 7.87733 19.3102 8.31776C19.3102 8.47959 19.3102 8.64142 19.3102 8.81225C19.3153 11.7511 18.1414 14.5691 16.0517 16.6345C13.9619 18.6999 11.1311 19.8399 8.19393 19.7989C6.49587 19.8046 4.81955 19.4169 3.2963 18.6661C3.21416 18.6302 3.16119 18.549 3.1615 18.4593V18.3604C3.1615 18.2313 3.26611 18.1267 3.39515 18.1267C5.0643 18.0716 6.6739 17.4929 7.99622 16.4724C6.48541 16.4419 5.12607 15.5469 4.50048 14.1707C4.46889 14.0956 4.47872 14.0093 4.52645 13.9432C4.57417 13.8771 4.65288 13.8407 4.73413 13.8471C5.1933 13.8932 5.65706 13.8505 6.10008 13.7212C4.43227 13.375 3.17909 11.9904 2.99974 10.2957C2.99337 10.2144 3.0298 10.1357 3.09588 10.0879C3.16195 10.0402 3.24812 10.0303 3.32326 10.062C3.77082 10.2595 4.25397 10.3635 4.74312 10.3676C3.28172 9.40846 2.65049 7.58405 3.20643 5.92622C3.26382 5.76513 3.40169 5.64612 3.56938 5.61294C3.73706 5.57975 3.90984 5.63728 4.0242 5.76439C5.99627 7.86325 8.70592 9.11396 11.5818 9.25279C11.5082 8.95885 11.472 8.65676 11.474 8.35372C11.5009 6.76472 12.4841 5.34921 13.9633 4.76987C15.4424 4.19054 17.1248 4.56203 18.2229 5.71044C18.9713 5.56785 19.6949 5.31645 20.3706 4.96421C20.4201 4.93331 20.4829 4.93331 20.5324 4.96421C20.5633 5.01373 20.5633 5.07652 20.5324 5.12604C20.2051 5.87552 19.6522 6.50412 18.9508 6.92419C19.565 6.85296 20.1684 6.70807 20.7481 6.49264C20.7969 6.45942 20.861 6.45942 20.9098 6.49264C20.9507 6.51134 20.9813 6.54711 20.9934 6.59042C21.0055 6.63373 20.9979 6.68018 20.9727 6.7174Z" fill="url(#paint0_linear_4_3618)"/>
<defs>
<linearGradient id="paint0_linear_4_3618" x1="2.99902" y1="12.15" x2="20.999" y2="12.15" gradientUnits="userSpaceOnUse">
<stop stop-color="#17E3A6"/>
<stop offset="1" stop-color="#FF669F"/>
</linearGradient>
</defs>
</svg>

<svg xmlns="http://www.w3.org/2000/svg" width="24" height="24" fill="none" xmlns:v="https://vecta.io/nano"><path d="M20.973 6.717a7.19 7.19 0 0 1-1.663 1.6v.494a10.97 10.97 0 0 1-3.258 7.822 10.96 10.96 0 0 1-7.858 3.164c-1.698.006-3.374-.382-4.898-1.133-.082-.036-.135-.117-.135-.207v-.099c0-.129.105-.234.234-.234a7.96 7.96 0 0 0 4.601-1.654c-1.511-.03-2.87-.925-3.496-2.302-.032-.075-.022-.161.026-.228s.126-.102.208-.096c.459.046.923.003 1.366-.126A3.92 3.92 0 0 1 3 10.296c-.006-.081.03-.16.096-.208s.152-.058.227-.026a3.59 3.59 0 0 0 1.42.306 3.85 3.85 0 0 1-1.537-4.441c.057-.161.195-.28.363-.313s.34.024.455.151c1.972 2.099 4.682 3.35 7.558 3.488-.074-.294-.11-.596-.108-.899a3.92 3.92 0 0 1 2.489-3.584c1.479-.579 3.162-.208 4.26.941.748-.143 1.472-.394 2.148-.746.05-.031.112-.031.162 0 .031.05.031.112 0 .162a3.93 3.93 0 0 1-1.582 1.798 7.71 7.71 0 0 0 1.797-.432c.049-.033.113-.033.162 0 .041.019.072.054.084.098s.005.09-.021.127z" fill="url(#A)"/><defs><linearGradient id="A" x1="2.999" y1="12.15" x2="20.999" y2="12.15" gradientUnits="userSpaceOnUse"><stop stop-color="#17e3a6"/><stop offset="1" stop-color="#ff669f"/></linearGradient></defs></svg>
